X: 21
T:Put Another Log On The Fire
M:4/4
L:1/8
Q:120
C:Bill & Boyd
K:D
"D"ff =f^f a2 =f>^f|e d3-d3 z|aa aa a f< g f|"A"e6 z2|!
"A7"gg gg ge ^d>e|=dc3z4|ee e>e e^d e=f|"D"^f6z2|!
 "D"ff f>A ff =f>^f|e<d-d2-d2 za|aa aa a<f ga|"G"b4-b2zb|!
bb bb b2 ag|"D"af3 a3f|"A7"gf g^g aa fe|"D"d3z"A"a4:||
